assets/images/btn_google_play.svg

<svg width="158" height="50" viewBox="0 0 158 50" fill="none" xmlns="http://www.w3.org/2000/svg">
<path fill-rule="evenodd" clip-rule="evenodd" d="M152.148 50H5.85185C2.57481 50 0 47.25 0 43.75V6.25C0 2.75 2.57481 0 5.85185 0H152.148C155.425 0 158 2.75 158 6.25V43.75C158 47.25 155.425 50 152.148 50Z" fill="#004177"/>
<path d="M52.9062 16.0938C52.1276 16.0938 51.5091 15.832 51.0508 15.3086C50.5951 14.7826 50.3672 14.0729 50.3672 13.1797C50.3672 12.2943 50.5977 11.5885 51.0586 11.0625C51.5195 10.5339 52.1354 10.2695 52.9062 10.2695C53.5052 10.2695 54.0156 10.4336 54.4375 10.7617C54.862 11.0872 55.1263 11.5208 55.2305 12.0625H54.5117C54.4102 11.7135 54.2135 11.4362 53.9219 11.2305C53.6302 11.0221 53.2917 10.918 52.9062 10.918C52.3568 10.918 51.9167 11.1237 51.5859 11.5352C51.2552 11.9466 51.0898 12.4948 51.0898 13.1797C51.0898 13.8724 51.2539 14.4232 51.582 14.832C51.9102 15.2409 52.3529 15.4453 52.9102 15.4453C53.3086 15.4453 53.6471 15.3568 53.9258 15.1797C54.2044 15.0026 54.3997 14.7526 54.5117 14.4297H55.2305C55.0924 14.9661 54.8229 15.3776 54.4219 15.6641C54.0208 15.9505 53.5156 16.0938 52.9062 16.0938ZM57.9102 13.8594L59.8633 16H58.9883L57.2344 14.0469H57.2031V16H56.5312V11.9375H57.2031V13.7344H57.2344L58.9688 11.9375H59.8086L57.9102 13.8594ZM62.1562 15.4922C62.4766 15.4922 62.7448 15.3932 62.9609 15.1953C63.1797 14.9948 63.2891 14.7487 63.2891 14.457V14.125L62.2031 14.1914C61.9297 14.2096 61.7174 14.276 61.5664 14.3906C61.418 14.5052 61.3438 14.6589 61.3438 14.8516C61.3438 15.0443 61.418 15.1992 61.5664 15.3164C61.7148 15.4336 61.9115 15.4922 62.1562 15.4922ZM62.0039 16.0703C61.6003 16.0703 61.2734 15.9583 61.0234 15.7344C60.776 15.5104 60.6523 15.2161 60.6523 14.8516C60.6523 14.5026 60.7799 14.224 61.0352 14.0156C61.293 13.8073 61.6562 13.6901 62.125 13.6641L63.2891 13.5977V13.2578C63.2891 13.0104 63.2109 12.8164 63.0547 12.6758C62.8984 12.5352 62.6797 12.4648 62.3984 12.4648C62.1406 12.4648 61.931 12.5221 61.7695 12.6367C61.6081 12.7487 61.5052 12.9062 61.4609 13.1094H60.8047C60.8281 12.7474 60.9844 12.4505 61.2734 12.2188C61.5651 11.9844 61.9453 11.8672 62.4141 11.8672C62.8906 11.8672 63.2682 11.987 63.5469 12.2266C63.8281 12.4661 63.9688 12.7878 63.9688 13.1914V16H63.3242V15.3008H63.3086C63.1862 15.5326 63.0065 15.7188 62.7695 15.8594C62.5326 16 62.2773 16.0703 62.0039 16.0703ZM68.5039 16H67.832V14.2461H67.7734C67.5286 14.457 67.2005 14.5625 66.7891 14.5625C66.3125 14.5625 65.9453 14.431 65.6875 14.168C65.4323 13.9049 65.3047 13.5508 65.3047 13.1055V11.9375H65.9766V13.0977C65.9766 13.3685 66.0482 13.582 66.1914 13.7383C66.3346 13.8919 66.5404 13.9688 66.8086 13.9688C67.2539 13.9688 67.5951 13.8359 67.832 13.5703V11.9375H68.5039V16ZM71.3047 15.4922C71.625 15.4922 71.8932 15.3932 72.1094 15.1953C72.3281 14.9948 72.4375 14.7487 72.4375 14.457V14.125L71.3516 14.1914C71.0781 14.2096 70.8659 14.276 70.7148 14.3906C70.5664 14.5052 70.4922 14.6589 70.4922 14.8516C70.4922 15.0443 70.5664 15.1992 70.7148 15.3164C70.8633 15.4336 71.0599 15.4922 71.3047 15.4922ZM71.1523 16.0703C70.7487 16.0703 70.4219 15.9583 70.1719 15.7344C69.9245 15.5104 69.8008 15.2161 69.8008 14.8516C69.8008 14.5026 69.9284 14.224 70.1836 14.0156C70.4414 13.8073 70.8047 13.6901 71.2734 13.6641L72.4375 13.5977V13.2578C72.4375 13.0104 72.3594 12.8164 72.2031 12.6758C72.0469 12.5352 71.8281 12.4648 71.5469 12.4648C71.2891 12.4648 71.0794 12.5221 70.918 12.6367C70.7565 12.7487 70.6536 12.9062 70.6094 13.1094H69.9531C69.9766 12.7474 70.1328 12.4505 70.4219 12.2188C70.7135 11.9844 71.0938 11.8672 71.5625 11.8672C72.0391 11.8672 72.4167 11.987 72.6953 12.2266C72.9766 12.4661 73.1172 12.7878 73.1172 13.1914V16H72.4727V15.3008H72.457C72.3346 15.5326 72.1549 15.7188 71.918 15.8594C71.681 16 71.4258 16.0703 71.1523 16.0703ZM77.4492 11.9375V12.4961H76.1367V16H75.4648V12.4961H74.1523V11.9375H77.4492ZM80.0078 13.793H79.25V15.4414H80.0078C80.2708 15.4414 80.4805 15.3659 80.6367 15.2148C80.7956 15.0638 80.875 14.8646 80.875 14.6172C80.875 14.3672 80.7956 14.168 80.6367 14.0195C80.4805 13.8685 80.2708 13.793 80.0078 13.793ZM78.5781 16V11.9375H79.25V13.2344H80.0195C80.4857 13.2344 80.8568 13.3594 81.1328 13.6094C81.4089 13.8594 81.5469 14.1953 81.5469 14.6172C81.5469 15.0391 81.4089 15.375 81.1328 15.625C80.8568 15.875 80.4857 16 80.0195 16H78.5781ZM86.5742 12.4883H85.6016V13.625H86.4727C86.9779 13.625 87.2305 13.4323 87.2305 13.0469C87.2305 12.8672 87.1745 12.7292 87.0625 12.6328C86.9505 12.5365 86.7878 12.4883 86.5742 12.4883ZM86.5273 14.1719H85.6016V15.4492H86.6484C86.8932 15.4492 87.0807 15.3958 87.2109 15.2891C87.3411 15.1797 87.4062 15.0221 87.4062 14.8164C87.4062 14.3867 87.1133 14.1719 86.5273 14.1719ZM84.9297 16V11.9375H86.668C87.0482 11.9375 87.3477 12.0299 87.5664 12.2148C87.7852 12.3997 87.8945 12.6536 87.8945 12.9766C87.8945 13.1823 87.8294 13.3698 87.6992 13.5391C87.5716 13.7083 87.4141 13.8125 87.2266 13.8516V13.8828C87.4818 13.9193 87.6862 14.0234 87.8398 14.1953C87.9961 14.3672 88.0742 14.5794 88.0742 14.832C88.0742 15.1914 87.9492 15.4766 87.6992 15.6875C87.4518 15.8958 87.112 16 86.6797 16H84.9297Z" fill="white"/>
<path fill-rule="evenodd" clip-rule="evenodd" d="M77.3601 24.8C74.9601 24.8 73.0601 26.6 73.0601 29.1C73.0601 31.5 74.9601 33.4 77.3601 33.4C79.7601 33.4 81.6601 31.6 81.6601 29.1C81.6601 26.5 79.7601 24.8 77.3601 24.8ZM77.3601 31.6001C76.0601 31.6001 74.9601 30.5001 74.9601 29.0001C74.9601 27.5001 76.0601 26.4001 77.3601 26.4001C78.6601 26.4001 79.7601 27.4001 79.7601 29.0001C79.7601 30.5001 78.6601 31.6001 77.3601 31.6001ZM68.0601 24.8C65.6601 24.8 63.7601 26.6 63.7601 29.1C63.7601 31.5 65.6601 33.4 68.0601 33.4C70.4601 33.4 72.3601 31.6 72.3601 29.1C72.3601 26.5 70.4601 24.8 68.0601 24.8ZM68.0601 31.6001C66.7601 31.6001 65.6601 30.5001 65.6601 29.0001C65.6601 27.5001 66.7601 26.4001 68.0601 26.4001C69.3601 26.4001 70.4601 27.4001 70.4601 29.0001C70.4601 30.5001 69.3601 31.6001 68.0601 31.6001ZM56.9601 26.1V27.9H61.2601C61.1601 28.9 60.7601 29.7 60.2601 30.2C59.6601 30.8 58.6601 31.5 56.9601 31.5C54.2601 31.5 52.2601 29.4 52.2601 26.7C52.2601 24 54.3601 21.9 56.9601 21.9C58.3601 21.9 59.4601 22.5 60.2601 23.2L61.5601 21.9C60.4601 20.9 59.0601 20.1 57.0601 20.1C53.4601 20.1 50.3601 23.1 50.3601 26.7C50.3601 30.3 53.4601 33.3 57.0601 33.3C59.0601 33.3 60.4601 32.7 61.6601 31.4C62.8601 30.2 63.2601 28.5 63.2601 27.2C63.2601 26.8 63.2601 26.4 63.1601 26.1H56.9601ZM102.36 27.5C101.96 26.5 100.96 24.8 98.7601 24.8C96.5601 24.8 94.7601 26.5 94.7601 29.1C94.7601 31.5 96.5601 33.4 98.9601 33.4C100.86 33.4 102.06 32.2 102.46 31.5L101.06 30.5C100.56 31.2 99.9601 31.7 98.9601 31.7C97.9601 31.7 97.3601 31.3 96.8601 30.4L102.56 28L102.36 27.5ZM96.5601 28.9001C96.5601 27.3001 97.8601 26.4001 98.7601 26.4001C99.4601 26.4001 100.16 26.8001 100.36 27.3001L96.5601 28.9001ZM91.8601 33.0001H93.7601V20.5001H91.8601V33.0001ZM88.8601 25.7C88.3601 25.2 87.5601 24.7 86.5601 24.7C84.4601 24.7 82.4601 26.6 82.4601 29C82.4601 31.4 84.3601 33.2 86.5601 33.2C87.5601 33.2 88.3601 32.7 88.7601 32.2H88.8601V32.8C88.8601 34.4 87.9601 35.3 86.5601 35.3C85.4601 35.3 84.6601 34.5 84.4601 33.8L82.8601 34.5C83.3601 35.6 84.5601 37 86.6601 37C88.8601 37 90.6601 35.7 90.6601 32.6V25H88.8601V25.7ZM86.6601 31.6001C85.3601 31.6001 84.2601 30.5001 84.2601 29.0001C84.2601 27.5001 85.3601 26.4001 86.6601 26.4001C87.9601 26.4001 88.9601 27.5001 88.9601 29.0001C88.9601 30.5001 87.9601 31.6001 86.6601 31.6001ZM111.06 20.5001H106.56V33.0001H108.46V28.3001H111.06C113.16 28.3001 115.16 26.8001 115.16 24.4001C115.16 22.0001 113.16 20.5001 111.06 20.5001ZM111.16 26.5H108.46V22.2H111.16C112.56 22.2 113.36 23.4 113.36 24.3C113.26 25.4 112.46 26.5 111.16 26.5ZM122.66 24.7C121.26 24.7 119.86 25.3 119.36 26.6L121.06 27.3C121.46 26.6 122.06 26.4 122.76 26.4C123.76 26.4 124.66 27 124.76 28V28.1C124.46 27.9 123.66 27.6 122.86 27.6C121.06 27.6 119.26 28.6 119.26 30.4C119.26 32.1 120.76 33.2 122.36 33.2C123.66 33.2 124.26 32.6 124.76 32H124.86V33H126.66V28.2C126.46 26 124.76 24.7 122.66 24.7ZM122.46 31.6C121.86 31.6 120.96 31.3 120.96 30.5C120.96 29.5 122.06 29.2 122.96 29.2C123.76 29.2 124.16 29.4 124.66 29.6C124.46 30.8 123.46 31.6 122.46 31.6ZM132.96 25.0001L130.86 30.4001H130.76L128.56 25.0001H126.56L129.86 32.6001L127.96 36.8001H129.86L134.96 25.0001H132.96ZM116.16 33.0001H118.06V20.5001H116.16V33.0001Z" fill="white"/>
<path fill-rule="evenodd" clip-rule="evenodd" d="M19.4005 11C19.1005 11.3 19.0005 11.8 19.0005 12.4V34.5C19.0005 35.1 19.2005 35.6 19.5005 35.9L19.6005 36L32.0005 23.6V23.4L19.4005 11Z" fill="white"/>
<path fill-rule="evenodd" clip-rule="evenodd" d="M37.1005 27.5L33.0005 23.4V23.1L37.1005 19L37.2005 19.1L42.1005 21.9C43.5005 22.7 43.5005 24 42.1005 24.8L37.1005 27.5Z" fill="white"/>
<path fill-rule="evenodd" clip-rule="evenodd" d="M36.7005 28.2L32.5005 24L20.0005 36.5C20.5005 37 21.2005 37 22.1005 36.6L36.7005 28.2Z" fill="white"/>
<path fill-rule="evenodd" clip-rule="evenodd" d="M36.7005 18.6287L22.1005 10.3287C21.2005 9.82873 20.5005 9.92873 20.0005 10.4287L32.5005 22.8287L36.7005 18.6287Z" fill="white"/>
<path fill-rule="evenodd" clip-rule="evenodd" d="M19.6603 35.3C19.3603 35 19.2603 34.5 19.2603 33.9V34C19.2603 34.6 19.4603 35.1 19.7603 35.4V35.3H19.6603Z" fill="black"/>
</svg>

<svg width="158" height="50" fill="none" xmlns="http://www.w3.org/2000/svg"><path fill-rule="evenodd" clip-rule="evenodd" d="M152.148 50H5.852C2.575 50 0 47.25 0 43.75V6.25C0 2.75 2.575 0 5.852 0h146.296C155.425 0 158 2.75 158 6.25v37.5c0 3.5-2.575 6.25-5.852 6.25z" fill="#004177"/><path d="M52.906 16.094c-.778 0-1.397-.262-1.855-.785-.456-.526-.684-1.236-.684-2.13 0-.885.23-1.59.692-2.117.46-.528 1.076-.792 1.847-.792.6 0 1.11.164 1.532.492.424.325.688.759.792 1.3h-.718a1.502 1.502 0 00-.59-.832 1.702 1.702 0 00-1.016-.312c-.55 0-.99.206-1.32.617-.33.412-.496.96-.496 1.645 0 .692.164 1.243.492 1.652.328.409.77.613 1.328.613.399 0 .737-.088 1.016-.265a1.41 1.41 0 00.586-.75h.718c-.138.536-.407.948-.808 1.234-.401.287-.906.43-1.516.43zm5.004-2.235L59.863 16h-.875l-1.754-1.953h-.03V16h-.673v-4.063h.672v1.797h.031l1.735-1.796h.84l-1.899 1.921zm4.246 1.633c.32 0 .589-.099.805-.297a.963.963 0 00.328-.738v-.332l-1.086.066c-.273.019-.486.085-.637.2a.553.553 0 00-.222.46c0 .193.074.348.222.465.149.118.345.176.59.176zm-.152.578c-.404 0-.73-.112-.98-.336-.248-.224-.372-.518-.372-.882 0-.35.128-.628.383-.836.258-.209.621-.326 1.09-.352l1.164-.066v-.34c0-.248-.078-.442-.234-.582-.157-.14-.375-.211-.657-.211-.257 0-.467.057-.629.172a.746.746 0 00-.308.472h-.656c.023-.362.18-.659.468-.89.292-.235.672-.352 1.141-.352.477 0 .854.12 1.133.36.281.24.422.56.422.964V16h-.645v-.7h-.015a1.405 1.405 0 01-.54.56c-.236.14-.492.21-.765.21zm6.5-.07h-.672v-1.754h-.059c-.244.211-.572.316-.984.316-.477 0-.844-.131-1.102-.394-.255-.263-.382-.617-.382-1.063v-1.168h.672v1.16c0 .271.071.485.214.641.144.154.35.23.618.23.445 0 .786-.132 1.023-.398v-1.633h.672V16zm2.8-.508c.321 0 .59-.099.805-.297a.963.963 0 00.329-.738v-.332l-1.086.066c-.274.019-.486.085-.637.2a.553.553 0 00-.223.46c0 .193.074.348.223.465.148.118.345.176.59.176zm-.152.578c-.403 0-.73-.112-.98-.336-.248-.224-.371-.518-.371-.882 0-.35.127-.628.383-.836.257-.209.62-.326 1.09-.352l1.163-.066v-.34c0-.248-.078-.442-.234-.582-.156-.14-.375-.211-.656-.211-.258 0-.468.057-.629.172a.745.745 0 00-.309.472h-.656c.024-.362.18-.659.469-.89.291-.235.672-.352 1.14-.352.477 0 .855.12 1.133.36.282.24.422.56.422.964V16h-.644v-.7h-.016a1.405 1.405 0 01-.539.56 1.48 1.48 0 01-.766.21zm6.297-4.133v.56h-1.312V16h-.672v-3.504h-1.313v-.559h3.297zm2.559 1.856h-.758v1.648h.758c.263 0 .473-.075.629-.226a.786.786 0 00.238-.598c0-.25-.08-.449-.238-.598-.156-.15-.366-.226-.63-.226zM78.578 16v-4.063h.672v1.297h.77c.466 0 .837.125 1.113.375s.414.586.414 1.008c0 .422-.138.758-.414 1.008-.276.25-.647.375-1.114.375h-1.44zm7.996-3.512h-.972v1.137h.87c.506 0 .759-.193.759-.578 0-.18-.056-.318-.168-.414-.112-.096-.275-.145-.489-.145zm-.047 1.684h-.925v1.277h1.046c.245 0 .433-.053.563-.16.13-.11.195-.267.195-.473 0-.43-.293-.644-.879-.644zM84.93 16v-4.063h1.738c.38 0 .68.093.898.278.22.185.328.439.328.762a.901.901 0 01-.195.562.782.782 0 01-.472.313v.03c.255.037.46.141.613.313a.911.911 0 01.234.637c0 .36-.125.645-.375.855-.247.209-.587.313-1.02.313h-1.75z" fill="#fff"/><path fill-rule="evenodd" clip-rule="evenodd" d="M77.36 24.8c-2.4 0-4.3 1.8-4.3 4.3 0 2.4 1.9 4.3 4.3 4.3s4.3-1.8 4.3-4.3c0-2.6-1.9-4.3-4.3-4.3zm0 6.8c-1.3 0-2.4-1.1-2.4-2.6s1.1-2.6 2.4-2.6c1.3 0 2.4 1 2.4 2.6 0 1.5-1.1 2.6-2.4 2.6zm-9.3-6.8c-2.4 0-4.3 1.8-4.3 4.3 0 2.4 1.9 4.3 4.3 4.3s4.3-1.8 4.3-4.3c0-2.6-1.9-4.3-4.3-4.3zm0 6.8c-1.3 0-2.4-1.1-2.4-2.6s1.1-2.6 2.4-2.6c1.3 0 2.4 1 2.4 2.6 0 1.5-1.1 2.6-2.4 2.6zm-11.1-5.5v1.8h4.3c-.1 1-.5 1.8-1 2.3-.6.6-1.6 1.3-3.3 1.3-2.7 0-4.7-2.1-4.7-4.8 0-2.7 2.1-4.8 4.7-4.8 1.4 0 2.5.6 3.3 1.3l1.3-1.3c-1.1-1-2.5-1.8-4.5-1.8-3.6 0-6.7 3-6.7 6.6 0 3.6 3.1 6.6 6.7 6.6 2 0 3.4-.6 4.6-1.9 1.2-1.2 1.6-2.9 1.6-4.2 0-.4 0-.8-.1-1.1h-6.2zm45.4 1.4c-.4-1-1.4-2.7-3.6-2.7s-4 1.7-4 4.3c0 2.4 1.8 4.3 4.2 4.3 1.9 0 3.1-1.2 3.5-1.9l-1.4-1c-.5.7-1.1 1.2-2.1 1.2s-1.6-.4-2.1-1.3l5.7-2.4-.2-.5zm-5.8 1.4c0-1.6 1.3-2.5 2.2-2.5.7 0 1.4.4 1.6.9l-3.8 1.6zm-4.7 4.1h1.9V20.5h-1.9V33zm-3-7.3c-.5-.5-1.3-1-2.3-1-2.1 0-4.1 1.9-4.1 4.3s1.9 4.2 4.1 4.2c1 0 1.8-.5 2.2-1h.1v.6c0 1.6-.9 2.5-2.3 2.5-1.1 0-1.9-.8-2.1-1.5l-1.6.7c.5 1.1 1.7 2.5 3.8 2.5 2.2 0 4-1.3 4-4.4V25h-1.8v.7zm-2.2 5.9c-1.3 0-2.4-1.1-2.4-2.6s1.1-2.6 2.4-2.6c1.3 0 2.3 1.1 2.3 2.6s-1 2.6-2.3 2.6zm24.4-11.1h-4.5V33h1.9v-4.7h2.6c2.1 0 4.1-1.5 4.1-3.9s-2-3.9-4.1-3.9zm.1 6h-2.7v-4.3h2.7c1.4 0 2.2 1.2 2.2 2.1-.1 1.1-.9 2.2-2.2 2.2zm11.5-1.8c-1.4 0-2.8.6-3.3 1.9l1.7.7c.4-.7 1-.9 1.7-.9 1 0 1.9.6 2 1.6v.1c-.3-.2-1.1-.5-1.9-.5-1.8 0-3.6 1-3.6 2.8 0 1.7 1.5 2.8 3.1 2.8 1.3 0 1.9-.6 2.4-1.2h.1v1h1.8v-4.8c-.2-2.2-1.9-3.5-4-3.5zm-.2 6.9c-.6 0-1.5-.3-1.5-1.1 0-1 1.1-1.3 2-1.3.8 0 1.2.2 1.7.4-.2 1.2-1.2 2-2.2 2zm10.5-6.6l-2.1 5.4h-.1l-2.2-5.4h-2l3.3 7.6-1.9 4.2h1.9l5.1-11.8h-2zm-16.8 8h1.9V20.5h-1.9V33zM19.4 11c-.3.3-.4.8-.4 1.4v22.1c0 .6.2 1.1.5 1.4l.1.1L32 23.6v-.2L19.4 11zm17.7 16.5L33 23.4v-.3l4.1-4.1.1.1 4.9 2.8c1.4.8 1.4 2.1 0 2.9l-5 2.7zm-.4.7L32.5 24 20 36.5c.5.5 1.2.5 2.1.1l14.6-8.4zm0-9.571l-14.6-8.3c-.9-.5-1.6-.4-2.1.1l12.5 12.4 4.2-4.2z" fill="#fff"/><path fill-rule="evenodd" clip-rule="evenodd" d="M19.66 35.3c-.3-.3-.4-.8-.4-1.4v.1c0 .6.2 1.1.5 1.4v-.1h-.1z" fill="#000"/></svg>
